X:1
T:Title
%%score { ( 1 3 ) | 2 }
L:1/8
Q:1/4=120
M:6/4
K:F
V:1 treble nm="Grand Piano"
V:3 treble 
V:2 bass 
V:1
 [DF]3 [^CE] [DF]2 [CG]4 [CA]2 | [DF]4 [DG]2 [B,D]4 [DF]2 | [_EA]4 c2 G4 A2 | [DB]12 | %4
w: Chas.~H.~Gabriel * * * *||||
 [DF]3 [^CE] [DF]2 [CG]4 [CA]2 | [B,DF]4 [DFG]2 [CFA]4 [FB]2 | [Fc]4 [FA]2 [Ec]4 [EG]2 | [_Ec]12 | %8
w: ||||
 [Fd]3 [E^c] [Fd]2 [DB]2 [EA]2 [_AB]2 | [GB]3 [^FA] [GB]2 .G4 B2 | F4 B2 [Fd]4 [FB]2 | %11
w: |||
 [Fd]6 .[Fc]6 | [Fd]3 [E^c] [Fd]2 .[DB]4 [DB]2 |[M:13/8] [_EA]- [EA]3 [DB]2 G3 z2 G2 | %14
w: |||
[M:6/4] F4 B2 d4 B2 | c6[K:bass][K:treble] z6 |] %16
w: ||
V:2
 [B,,B,]3 [B,,B,] [B,,B,]2 [B,,E,]4 [B,,G,]2 | [B,,B,]4 [B,,B,]2 [B,,F,]4 [B,,B,]2 | %2
 [C,F,]4 [F,A,_E]2 [F,A,E]4 [F,E]2 | [B,,F,]12 | [B,,B,]3 [B,,B,] [B,,B,]2 [B,,E,]4 [B,,G,]2 | %5
 B,,4 B,,2 C,4 [C,G,]2 | [C,A,]4 [C,C]2 [C,B,]4 [C,B,]2 | [F,,A,]12 | %8
 [B,,B,]3 [B,,B,] [B,,B,]2 [B,,F,]2 [C,F,]2 [D,B,]2 | [_E,_E]3 [E,E] [E,E]2 .[E,B,E]4 [G,B,E]2 | %10
 [B,D]4 [B,D]2 [B,,B,]4 [D,B,]2 | [F,B,]6 .[F,A,]6 | [B,,B,]3 [B,,B,] [B,,B,]2 .[B,,F,]4 [B,,F,]2 | %13
[M:13/8] [C,F,]- [C,F,]3 [B,,B,]2 [_E,B,_E]3 z2 [=E,B,^C]2 | %14
[M:6/4] [F,B,D]4 [F,B,D]2 [F,B,F]4 [F,B,D]2 | .[F,A,_E]6 .[B,,F,]6 |] %16
V:3
 x12 | x12 | x12 | x12 | x12 | x12 | x12 | x12 | x12 | x12 | x12 | x12 | x12 |[M:13/8] x13 | %14
[M:6/4] x12 | z2[K:bass] G,2 F,2[K:treble] .[DB]6 |] %16

